assets/icons/enrolled.svg

<svg width="20" height="20" viewBox="0 0 20 20" fill="none" xmlns="http://www.w3.org/2000/svg">
<path d="M16.6663 18.3337H4.99967C4.0792 18.3337 3.33301 17.5875 3.33301 16.667M3.33301 16.667C3.33301 15.7465 4.0792 15.0003 4.99967 15.0003H16.6663V5.00033C16.6663 3.42898 16.6663 2.6433 16.1782 2.15515C15.69 1.66699 14.9043 1.66699 13.333 1.66699H8.33301C5.97598 1.66699 4.79747 1.66699 4.06524 2.39923C3.33301 3.13146 3.33301 4.30997 3.33301 6.66699V16.667Z" stroke="currentColor" stroke-width="1.5" stroke-linecap="round" stroke-linejoin="round"/>
<path d="M16.2503 15C16.2503 15 15.417 15.6357 15.417 16.6667C15.417 17.6977 16.2503 18.3333 16.2503 18.3333" stroke="currentColor" stroke-width="1.5" stroke-linecap="round" stroke-linejoin="round"/>
<path d="M7.5 1.66699V8.33366L10 5.83366L12.5 8.33366V1.66699" stroke="currentColor" stroke-width="1.5" stroke-linecap="round" stroke-linejoin="round"/>
</svg>

<svg xmlns="http://www.w3.org/2000/svg" width="20" height="20" fill="none" viewBox="0 0 20 20"><path stroke="currentColor" stroke-linecap="round" stroke-linejoin="round" stroke-width="1.5" d="M16.666 18.334H5c-.92 0-1.667-.747-1.667-1.667m0 0C3.333 15.747 4.079 15 5 15h11.666V5c0-1.571 0-2.357-.488-2.845s-1.274-.488-2.845-.488h-5c-2.357 0-3.536 0-4.268.732s-.732 1.911-.732 4.268z"/><path stroke="currentColor" stroke-linecap="round" stroke-linejoin="round" stroke-width="1.5" d="M16.25 15s-.833.636-.833 1.667c0 1.03.833 1.666.833 1.666M7.5 1.667v6.667l2.5-2.5 2.5 2.5V1.667"/></svg>
